src/devices/symbolic/input-keyboard-symbolic.svg

<svg width="16" height="16" version="1.1" xmlns="http://www.w3.org/2000/svg">
 <path d="m1 2c-0.554 0-1 0.446-1 1v9c0 0.554 0.446 1 1 1h14c0.554 0 1-0.446 1-1v-9c0-0.554-0.446-1-1-1h-14zm0 1h14v9h-14v-9zm1 2v1h1v-1h-1zm2 0v1h1v-1h-1zm2 0v1h1v-1h-1zm2 0v1h1v-1h-1zm2 0v1h1v-1h-1zm2 0v1h2v-1h-2zm-10 2v1h2v-1h-2zm3 0v1h1v-1h-1zm2 0v1h1v-1h-1zm2 0v1h1v-1h-1zm2 0v1h3v-1h-3zm-9 2v1h2v-1h-2zm3 0v1h6v-1h-6zm7 0v1h2v-1h-2z" fill="#363636" stroke-linecap="round" stroke-linejoin="round" style="paint-order:stroke fill markers"/>
</svg>

<svg xmlns="http://www.w3.org/2000/svg" width="16" height="16">
    <path fill="#050505" fill-opacity=".7" d="M1 2c-.554 0-1 .446-1 1v9c0 .554.446 1 1 1h14c.554 0 1-.446 1-1V3c0-.554-.446-1-1-1H1zm0 1h14v9H1V3zm1 2v1h1V5H2zm2 0v1h1V5H4zm2 0v1h1V5H6zm2 0v1h1V5H8zm2 0v1h1V5h-1zm2 0v1h2V5h-2zM2 7v1h2V7H2zm3 0v1h1V7H5zm2 0v1h1V7H7zm2 0v1h1V7H9zm2 0v1h3V7h-3zM2 9v1h2V9H2zm3 0v1h6V9H5zm7 0v1h2V9h-2z" style="paint-order:stroke fill markers"/>
</svg>
